img/icon-4.svg

<svg width="70" height="70" viewBox="0 0 70 70" fill="none" xmlns="http://www.w3.org/2000/svg">
<path d="M70 24.2403C69.9984 23.066 69.6487 21.8635 68.8529 20.8543L63.4301 14.0123C62.898 13.341 62.2178 12.8379 61.4834 12.5038C60.7473 12.1705 59.9516 12.0008 59.1458 12C58.1918 12 57.2099 12.242 56.3358 12.7786L51.0479 16.0223C50.8556 16.1418 50.5508 16.2689 50.1932 16.3556C49.8357 16.4431 49.427 16.4919 49.0283 16.4911C48.4086 16.4957 47.8192 16.3648 47.5027 16.2072L42.325 13.7352C41.3524 13.2756 40.3131 13.1005 39.2816 13.0975C38.5394 13.0975 37.7987 13.1926 37.0805 13.3874C36.3639 13.5838 35.6689 13.8776 35.0337 14.3167L34.8096 14.472C34.3582 14.2513 33.7905 13.9719 33.1661 13.6652C32.0059 13.1081 30.7332 12.9087 29.4472 12.9003C28.2854 12.9057 27.1252 13.0746 26.0448 13.5221L22.5182 15.0055C22.0831 15.1957 21.2517 15.3518 20.4296 15.3457C19.6082 15.3518 18.7768 15.1957 18.3425 15.0055L14.8128 13.5214C14.0551 13.204 13.2663 13.0731 12.4923 13.0731C11.6035 13.0739 10.7294 13.2459 9.90805 13.5724C9.08981 13.9027 8.31733 14.3898 7.68756 15.0823L1.26033 22.1793C0.419601 23.1063 -0.00153917 24.2784 1.19944e-05 25.4284C-0.00309033 26.7998 0.595657 28.1804 1.74196 29.1447L7.08649 33.6381L4.82179 36.0271L4.8249 36.0293C3.90816 36.9807 3.44824 38.2106 3.44979 39.4222C3.44824 40.7191 3.97408 42.0342 5.01026 43.0031L5.58729 43.5434C6.00068 43.9308 6.47533 44.2177 6.9686 44.4392C6.8003 44.943 6.6987 45.4636 6.6987 45.9834C6.69715 47.281 7.22144 48.5969 8.25916 49.5658L8.8362 50.1069C9.80877 51.0172 11.0737 51.4715 12.3139 51.47C12.7032 51.4707 13.0926 51.4213 13.4757 51.3315C13.7348 51.9259 14.1163 52.4815 14.6228 52.9526L15.2014 53.4952C16.174 54.4062 17.4389 54.8598 18.6791 54.8583C19.3438 54.8591 20.0139 54.7289 20.6405 54.4701C20.8887 54.9314 21.2114 55.3636 21.6162 55.7411L22.1963 56.2838C23.1674 57.194 24.4323 57.6484 25.674 57.6469C26.9949 57.6484 28.3358 57.1339 29.3231 56.1171L31.2908 54.0926L34.1721 56.6879L34.1612 56.6788C35.1276 57.5616 36.3716 58.0015 37.5924 58C38.9341 58.0015 40.2945 57.4695 41.2857 56.4246L41.8294 55.8492C42.0993 55.5638 42.3141 55.2502 42.5034 54.9245L43.0137 55.388C43.9801 56.2693 45.2225 56.7062 46.4418 56.7046C47.7866 56.7069 49.147 56.1757 50.1382 55.1292L50.6819 54.5554C51.2271 53.9808 51.5846 53.3027 51.7979 52.5933C51.9522 52.6086 52.105 52.6352 52.2602 52.6352C53.605 52.6375 54.9654 52.1062 55.9566 51.059L56.4987 50.4859L56.5003 50.4844C57.3984 49.5361 57.8451 48.3153 57.8436 47.1189C57.8436 47.0086 57.8342 46.899 57.8273 46.7886C58.6618 46.5451 59.4451 46.0892 60.078 45.421L60.6217 44.8456C61.5214 43.8958 61.9681 42.6766 61.9665 41.4794C61.9681 40.2213 61.4694 38.9519 60.4968 37.9929L59.95 37.3803L68.5923 27.9582C69.5633 26.8927 69.9969 25.5539 70 24.2403ZM36.2638 18.1221L37.2728 17.4226C37.4605 17.291 37.7607 17.1502 38.1182 17.0535C38.4773 16.9553 38.8891 16.9013 39.2831 16.9021C39.833 16.8983 40.3434 17.0139 40.6296 17.1563L45.8073 19.6282C46.8326 20.1115 47.9309 20.2911 49.0291 20.2957C49.7349 20.2957 50.4406 20.2158 51.1286 20.0491C51.8134 19.8809 52.4812 19.629 53.104 19.2492L58.3919 16.0048C58.5966 15.8792 58.8572 15.8046 59.1465 15.8046C59.3893 15.8046 59.6406 15.8586 59.8554 15.9568C60.0702 16.055 60.2447 16.1912 60.3688 16.3488L65.7917 23.1901C65.984 23.4267 66.1236 23.8179 66.1221 24.2403C66.1252 24.7145 65.946 25.1681 65.7118 25.4147L64.8936 26.3059L63.5875 25.0258C63.3603 24.8028 62.9919 24.8028 62.7646 25.0258C62.5374 25.2488 62.5374 25.6103 62.7646 25.8333L64.1126 27.156L62.3419 29.0876L59.7802 26.5738C59.5529 26.3508 59.1845 26.3508 58.9573 26.5738C58.73 26.7968 58.73 27.1583 58.9573 27.3813L61.5625 29.9377L59.7903 31.8693L57.7179 29.835C57.4907 29.612 57.1223 29.612 56.895 29.835C56.6678 30.058 56.6678 30.4195 56.895 30.6425L59.0116 32.7194L57.2828 34.6031L53.9641 31.5763C52.6223 30.3556 50.4709 28.6256 48.988 27.5746L43.0362 23.3681C42.4483 22.9526 41.8046 22.6702 41.143 22.4838C40.4822 22.2988 39.8012 22.2106 39.1179 22.2098C37.9608 22.2144 36.7881 22.4571 35.7294 23.0774L33.5803 24.3514C33.3802 24.4694 33.132 24.5372 32.859 24.5372C32.6163 24.5372 32.3634 24.4816 32.1486 24.3796C31.9322 24.2784 31.7577 24.1391 31.6351 23.9747L31.1597 23.3461L31.1582 23.3446C31.0038 23.1391 30.9309 22.9077 30.9294 22.6596C30.9325 22.292 31.0961 21.9442 31.3978 21.7227L36.2638 18.1221ZM8.15834 40.8241L8.11103 40.7792L8.10793 40.7769L8.10638 40.7762C7.70928 40.404 7.51073 39.907 7.50918 39.3986C7.51073 38.9199 7.68524 38.4549 8.04123 38.0873L13.6355 32.3328C14.014 31.9431 14.5204 31.7476 15.0401 31.746C15.5264 31.7468 16.0018 31.9196 16.3764 32.2674L16.4221 32.3107L16.4252 32.3138C16.8223 32.6852 17.0209 33.1822 17.0224 33.6921C17.0209 34.1708 16.8448 34.6373 16.4888 35.0042L10.8992 40.7564C10.5208 41.146 10.0128 41.3424 9.49311 41.3432C9.00605 41.3424 8.53062 41.1712 8.15834 40.8241ZM15.4581 46.0694L14.2691 47.2925C13.8907 47.6829 13.3842 47.8785 12.8646 47.8792C12.3767 47.8785 11.9013 47.7057 11.5282 47.3572L10.9326 46.8008C10.5339 46.4294 10.3354 45.9324 10.3346 45.4225C10.3362 44.9446 10.5107 44.478 10.8667 44.1112L18.3316 36.4289C18.7101 36.0392 19.2166 35.8444 19.7362 35.8429C20.224 35.8444 20.6995 36.0156 21.0725 36.365L21.6682 36.9221C22.0653 37.2943 22.2638 37.7905 22.2654 38.3004C22.2654 38.7783 22.0893 39.2456 21.7333 39.6125L20.5459 40.834C20.5188 40.8606 20.487 40.8797 20.4598 40.9071L15.5411 45.9659C15.5093 45.9986 15.4883 46.0367 15.4581 46.0694ZM22.4957 48.7705L20.6111 50.7112C20.2326 51.1009 19.7246 51.2965 19.2049 51.298C18.7186 51.2965 18.2417 51.1245 17.8686 50.7751L17.2885 50.2325C16.8898 49.8603 16.6913 49.3633 16.6905 48.8534C16.692 48.4196 16.8433 47.9987 17.1357 47.6509L22.2328 42.4049C22.6012 42.0723 23.0642 41.898 23.5443 41.8972C24.0321 41.898 24.5076 42.0707 24.8822 42.4201L25.4608 42.962C25.8579 43.3334 26.0564 43.8296 26.058 44.3395C26.0564 44.8083 25.8865 45.2657 25.5445 45.628C25.5368 45.6371 22.5407 48.7149 22.5407 48.7149C22.5244 48.7316 22.512 48.7522 22.4957 48.7705ZM30.0336 49.8763L27.0569 52.9404C26.6784 53.33 26.1704 53.5256 25.6523 53.5272C25.1645 53.5256 24.6891 53.3536 24.3145 53.0043L24.2904 52.9815C23.8918 52.6086 23.6932 52.1116 23.6924 51.6017C23.694 51.1458 23.8576 50.7036 24.1803 50.3459C24.1803 50.3459 27.2236 47.2095 27.2314 47.2019C27.6068 46.8305 28.0993 46.6417 28.6065 46.6402C29.0943 46.6417 29.5698 46.813 29.9444 47.1623L29.97 47.1874C30.3671 47.5588 30.5656 48.0551 30.5672 48.5642C30.5648 49.0422 30.3896 49.5087 30.0336 49.8763ZM57.4558 42.532L57.1967 42.8052C56.8182 43.2047 56.3033 43.4072 55.7743 43.4087C55.3276 43.4072 54.8925 43.2565 54.5334 42.9612L47.1289 36.2242C46.6597 35.7949 45.9229 35.8216 45.4855 36.2835C45.048 36.7448 45.0752 37.4678 45.546 37.8963L53.553 45.1828C53.9602 45.5557 54.1665 46.061 54.1681 46.5786C54.1665 47.0489 53.9982 47.5079 53.6531 47.8732L53.0955 48.4622C52.7154 48.8626 52.2004 49.065 51.673 49.0665C51.1945 49.065 50.7261 48.8991 50.3553 48.5612L42.3498 41.264C41.879 40.8348 41.1422 40.8614 40.7048 41.3234C40.2681 41.7853 40.2961 42.5084 40.7668 42.9361L47.7804 49.3291C48.1744 49.6997 48.376 50.1944 48.3776 50.7036C48.376 51.1724 48.2062 51.6321 47.8626 51.9959L47.3019 52.5872C46.9218 52.9883 46.4068 53.1908 45.8764 53.1923C45.3978 53.1915 44.9294 53.0256 44.5571 52.6885L37.2465 46.0359C36.7757 45.6074 36.0389 45.6348 35.603 46.0968C35.1671 46.5588 35.1943 47.2818 35.6651 47.7103L39.384 51.0978C39.7958 51.473 40.0037 51.9807 40.0037 52.4974C40.0037 52.9617 39.8369 53.4123 39.4995 53.7707C39.1257 54.165 38.6177 54.3636 38.0934 54.3651C37.6133 54.3636 37.1418 54.1969 36.7679 53.8567L32.5945 50.1001C32.7931 49.6054 32.8931 49.0817 32.8931 48.5619C32.8931 47.4622 32.4511 46.3518 31.5754 45.5329L31.5692 45.5268L31.5436 45.5032L31.5498 45.5093C30.7269 44.7383 29.659 44.354 28.6065 44.3555C28.5321 44.3555 28.4568 44.373 28.3824 44.3768C28.3824 44.3639 28.3855 44.3509 28.3855 44.3372C28.387 43.2375 27.9449 42.1271 27.0678 41.3081L26.4892 40.7655C25.8726 40.1894 25.1211 39.8301 24.34 39.6855C24.5006 39.2357 24.5913 38.7669 24.5913 38.2996C24.5929 37.1999 24.1508 36.0887 23.2736 35.269L22.678 34.7119C21.8551 33.9417 20.7887 33.5581 19.7362 33.5597C19.6028 33.5597 19.471 33.5855 19.3391 33.5985C19.3151 32.5307 18.8815 31.4606 18.0315 30.6645L17.9826 30.6174C17.1597 29.8464 16.0917 29.4628 15.0393 29.4636C13.9186 29.4628 12.787 29.8966 11.9509 30.7574L10.9039 31.8351L4.2657 26.2534C4.00356 26.0319 3.88101 25.7389 3.87791 25.4268C3.87946 25.1666 3.96555 24.9215 4.1579 24.7061L10.5867 17.6091C10.7472 17.4295 11.0257 17.2324 11.3747 17.0939C11.7198 16.9538 12.1293 16.8754 12.4923 16.877C12.8118 16.8754 13.0918 16.9348 13.2857 17.0178L16.8154 18.5018C17.9485 18.9699 19.1848 19.1442 20.4296 19.1503C21.6744 19.1442 22.9107 18.9707 24.0453 18.5018L27.5734 17.0185C27.9837 16.8389 28.719 16.6989 29.4472 16.7042C30.1817 16.6966 30.9077 16.8473 31.3086 17.0185L29.0626 18.6792C27.7433 19.6572 27.0491 21.1572 27.0507 22.6565C27.0507 23.6787 27.3749 24.7267 28.0442 25.611L28.0427 25.6095L28.5181 26.2389C29.047 26.9368 29.7311 27.4627 30.4764 27.8113C31.2233 28.1599 32.0338 28.3387 32.8575 28.3395C33.7812 28.3395 34.7297 28.1096 35.5829 27.6058L37.732 26.331C38.0166 26.156 38.5518 26.0075 39.1164 26.0121C39.4483 26.0113 39.7842 26.0578 40.075 26.14C40.3674 26.2206 40.6086 26.3386 40.7692 26.4528L46.721 30.6592C48.0069 31.5657 50.1638 33.3009 51.3248 34.3603L53.3382 36.196L53.3475 36.1869L57.3526 39.84C57.7613 40.2122 57.9676 40.7176 57.9692 41.2358C57.9692 41.7077 57.7994 42.1666 57.4558 42.532Z" fill="#0C8543"/>
</svg>

<svg width="70" height="70" fill="none" xmlns="http://www.w3.org/2000/svg"><path d="M70 24.24c-.002-1.174-.351-2.377-1.147-3.386l-5.423-6.842a5.25 5.25 0 0 0-1.947-1.508A5.674 5.674 0 0 0 59.146 12c-.954 0-1.936.242-2.81.779l-5.288 3.243c-.192.12-.497.247-.855.334a4.973 4.973 0 0 1-1.165.135c-.62.005-1.209-.126-1.525-.284l-5.178-2.472c-.973-.46-2.012-.634-3.043-.637-.743 0-1.483.095-2.201.29a6.662 6.662 0 0 0-2.047.929l-.224.155c-.452-.22-1.02-.5-1.644-.807-1.16-.557-2.433-.756-3.719-.765-1.162.006-2.322.175-3.402.622l-3.527 1.483c-.435.19-1.266.347-2.088.34-.822.007-1.653-.15-2.087-.34l-3.53-1.484a5.974 5.974 0 0 0-2.32-.448c-.89 0-1.764.173-2.585.5-.818.33-1.59.817-2.22 1.51L1.26 22.178A4.836 4.836 0 0 0 0 25.43a4.853 4.853 0 0 0 1.742 3.716l5.344 4.493-2.264 2.39.003.001a4.885 4.885 0 0 0-1.375 3.393 4.9 4.9 0 0 0 1.56 3.581l.577.54a4.98 4.98 0 0 0 1.382.896 4.892 4.892 0 0 0-.27 1.544 4.896 4.896 0 0 0 1.56 3.583l.577.54a5.09 5.09 0 0 0 4.64 1.225c.259.595.64 1.15 1.147 1.622l.578.542a5.134 5.134 0 0 0 5.44.975c.248.461.57.894.975 1.271l.58.543a5.085 5.085 0 0 0 3.478 1.363 5.085 5.085 0 0 0 3.65-1.53l1.967-2.024 2.881 2.595-.01-.01A5.087 5.087 0 0 0 37.591 58a5.09 5.09 0 0 0 3.694-1.575l.543-.576c.27-.285.485-.599.674-.924l.51.463a5.084 5.084 0 0 0 3.429 1.317 5.083 5.083 0 0 0 3.696-1.576l.544-.574a4.848 4.848 0 0 0 1.116-1.962c.154.016.307.042.462.042a5.081 5.081 0 0 0 3.697-1.576l.542-.573.001-.002a4.891 4.891 0 0 0 1.344-3.365c0-.11-.01-.22-.017-.33a5.03 5.03 0 0 0 2.251-1.368l.544-.575a4.888 4.888 0 0 0 1.345-3.367 4.895 4.895 0 0 0-1.47-3.486l-.547-.613 8.642-9.422c.971-1.065 1.405-2.404 1.408-3.718Zm-33.736-6.118 1.009-.7a2.82 2.82 0 0 1 .845-.369c.36-.098.771-.152 1.165-.15.55-.005 1.06.11 1.347.253l5.177 2.472c1.026.483 2.124.663 3.222.668.706 0 1.412-.08 2.1-.247a6.941 6.941 0 0 0 1.975-.8l5.288-3.244c.205-.126.465-.2.755-.2.242 0 .494.054.708.152.215.098.39.234.514.392l5.423 6.841c.192.237.332.628.33 1.05.003.475-.176.928-.41 1.175l-.818.89-1.307-1.28a.59.59 0 0 0-.822 0 .564.564 0 0 0 0 .808l1.348 1.323-1.771 1.932-2.562-2.514a.59.59 0 0 0-.823 0 .563.563 0 0 0 0 .807l2.605 2.557-1.772 1.931-2.072-2.034a.59.59 0 0 0-.823 0 .564.564 0 0 0 0 .807l2.117 2.077-1.73 1.884-3.318-3.027a61.635 61.635 0 0 0-4.976-4.001l-5.952-4.207a6.14 6.14 0 0 0-1.893-.884 7.537 7.537 0 0 0-2.025-.274c-1.157.004-2.33.247-3.389.867l-2.149 1.274c-.2.118-.448.186-.721.186a1.69 1.69 0 0 1-.71-.157 1.342 1.342 0 0 1-.514-.405l-.475-.629-.002-.001a1.163 1.163 0 0 1 .24-1.622l4.866-3.6ZM8.158 40.824l-.047-.045-.003-.002h-.002a1.88 1.88 0 0 1-.597-1.378c.002-.48.176-.944.532-1.312l5.595-5.754a1.95 1.95 0 0 1 1.404-.587c.486 0 .962.174 1.336.521l.046.044.003.003c.397.371.596.868.597 1.378a1.874 1.874 0 0 1-.533 1.312l-5.59 5.752a1.95 1.95 0 0 1-1.406.587c-.487 0-.962-.172-1.335-.519Zm7.3 5.245-1.189 1.223c-.378.39-.885.587-1.404.587-.488 0-.964-.173-1.337-.522l-.595-.556a1.87 1.87 0 0 1-.598-1.379c.001-.477.176-.944.532-1.31l7.465-7.683c.378-.39.885-.585 1.404-.586.488.001.963.173 1.337.522l.595.557c.397.372.596.869.597 1.378 0 .478-.176.946-.532 1.313l-1.187 1.221c-.027.027-.059.046-.086.073l-4.919 5.059c-.032.033-.053.07-.083.103Zm7.038 2.701-1.885 1.941c-.378.39-.886.586-1.406.587a1.948 1.948 0 0 1-1.336-.523l-.58-.542a1.872 1.872 0 0 1-.153-2.582l5.097-5.246a1.95 1.95 0 0 1 1.311-.508c.488.001.964.174 1.338.523l.579.542c.397.371.595.868.597 1.377a1.87 1.87 0 0 1-.514 1.289c-.007.01-3.003 3.087-3.003 3.087-.017.017-.029.037-.045.055Zm7.538 1.106-2.977 3.064c-.379.39-.887.586-1.405.587a1.952 1.952 0 0 1-1.338-.523l-.024-.023a1.875 1.875 0 0 1-.11-2.635l3.051-3.144c.376-.371.868-.56 1.375-.562.488.002.964.173 1.338.522l.026.025a1.88 1.88 0 0 1 .064 2.689Zm27.422-7.344-.26.273c-.378.4-.893.602-1.422.604a1.952 1.952 0 0 1-1.24-.448l-7.405-6.737a1.178 1.178 0 0 0-1.643.06 1.126 1.126 0 0 0 .06 1.612l8.007 7.287a1.886 1.886 0 0 1 .1 2.69l-.557.59c-.38.4-.896.602-1.423.603a1.948 1.948 0 0 1-1.318-.505l-8.005-7.297a1.18 1.18 0 0 0-1.645.06 1.126 1.126 0 0 0 .062 1.612l7.013 6.393a1.88 1.88 0 0 1 .083 2.667l-.561.591c-.38.401-.895.604-1.426.605-.478 0-.947-.166-1.319-.504l-7.31-6.652a1.179 1.179 0 0 0-1.644.06 1.128 1.128 0 0 0 .062 1.614l3.719 3.388c.412.375.62.883.62 1.4 0 .464-.167.914-.505 1.273a1.927 1.927 0 0 1-1.406.594 1.963 1.963 0 0 1-1.325-.508L32.594 50.1a4.135 4.135 0 0 0-1.019-4.567l-.006-.006-.025-.024.006.006a4.298 4.298 0 0 0-2.944-1.154c-.074 0-.15.018-.224.022 0-.013.003-.026.003-.04.002-1.1-.44-2.21-1.317-3.029l-.579-.542a4.283 4.283 0 0 0-2.149-1.08c.16-.45.251-.92.251-1.386.002-1.1-.44-2.211-1.317-3.031l-.596-.557a4.296 4.296 0 0 0-2.942-1.152c-.133 0-.265.026-.397.038a4.137 4.137 0 0 0-1.307-2.933l-.05-.048a4.302 4.302 0 0 0-2.943-1.153 4.3 4.3 0 0 0-3.088 1.293l-1.047 1.078-6.638-5.582a1.069 1.069 0 0 1-.108-1.547l6.429-7.097c.16-.18.439-.377.788-.515.345-.14.754-.219 1.117-.217.32-.002.6.058.794.14l3.53 1.485c1.133.468 2.369.642 3.614.648 1.244-.006 2.48-.18 3.615-.648l3.528-1.483c.41-.18 1.146-.32 1.874-.315.735-.007 1.46.143 1.862.314l-2.246 1.661a4.946 4.946 0 0 0-2.012 3.978 4.9 4.9 0 0 0 .993 2.954l-.001-.002.475.63a5.23 5.23 0 0 0 1.958 1.572 5.634 5.634 0 0 0 2.382.529c.923 0 1.872-.23 2.725-.734l2.149-1.275c.285-.175.82-.323 1.384-.319.332 0 .668.046.959.128.292.08.534.199.694.313l5.952 4.206c1.286.907 3.443 2.642 4.604 3.701l2.013 1.836.01-.01 4.005 3.654c.408.372.615.878.616 1.396 0 .472-.17.93-.513 1.296Z" fill="#0C8543"/></svg>
